static/images/contact/testimonials-blue.svg

<svg width="272" height="306" viewBox="0 0 272 306" fill="none" xmlns="http://www.w3.org/2000/svg">
<path d="M122.591 128.551C121.387 122.724 121.387 122.724 111.158 113.153C113.815 119.448 115.737 126.548 122.591 128.551Z" fill="#82C6DD"/>
<path d="M-21.6902 164.167C-22.6018 165.157 -22.6458 168.05 -20.8141 169.62C-19.3675 170.86 -19.2822 173.671 -17.2529 174.372C-15.1186 177.197 -13.3309 180.426 -10.564 182.51C-10.5026 182.899 -10.3065 183.12 -9.97475 183.169C-5.36348 189.957 -1.0575 197.066 4.54823 202.803C5.85013 203.611 6.1364 206.201 8.19319 205.682C8.8479 206.092 7.79106 208.356 9.59151 207.522C14.0927 216.064 20.8708 222.002 26.7895 228.922C28.5731 232.775 30.8164 236.045 34.4839 237.513C35.8023 241.173 37.8845 243.855 41.2181 244.93C41.3782 245.907 40.8662 247.093 41.7882 247.833C44.4166 249.999 45.5217 254.124 48.761 255.508C50.3242 257.244 50.5846 261.047 53.8906 260.015C54.781 260.964 55.217 264.003 56.5255 262.547C58.1294 260.761 55.5333 260.02 54.7367 258.84C53.9501 255.797 51.4527 255.63 49.5139 254.522C48.1948 253.145 50.0261 249.243 46.7201 249.457C45.0751 244.338 41.477 241.356 38.0651 238.17C37.3223 237.347 36.5787 236.523 35.8351 235.699C34.4338 232.708 32.1477 230.771 29.9683 228.706C30.5575 223.787 26.4498 223.398 24.5647 220.952C19.6552 214.583 15.7721 207.056 9.74097 201.94C9.86179 198.113 7.23339 200.084 5.85561 199.416C6.06014 197.801 5.69949 196.549 4.34435 195.932C3.67867 193.217 2.58223 191.018 -0.0795089 190.694C-1.99964 189.46 -1.61562 185.377 -4.61052 185.469C-4.79494 183.212 -5.85696 182.15 -7.75106 182.217C-8.37309 181.26 -8.99426 180.305 -9.61545 179.349C-9.16727 176.137 -11.8967 176.11 -13.0225 174.476C-13.4571 173.839 -13.8909 173.2 -14.3256 172.562C-14.7546 169.604 -16.9631 168.346 -18.4903 166.477C-19.383 165.382 -19.8661 162.186 -21.6902 164.167Z" fill="#82C6DD"/>
<path d="M174.693 75.9127C176.939 80.6621 178.899 85.7786 183.868 87.0045C181.536 82.3669 179.023 77.9633 174.693 75.9127Z" fill="#82C6DD"/>
<path d="M164.057 61.7638C163.552 61.0894 162.579 59.7296 161.52 61.4843C160.671 62.8924 161.173 63.9096 162.056 64.7231C164.635 67.0961 167.251 69.4095 169.853 71.7448C170.838 73.2855 171.764 74.9191 173.548 75.6288C174.273 71.9903 171.51 72.3734 170.699 70.784C169.531 66.6528 166.29 64.7463 164.057 61.7638Z" fill="#82C6DD"/>
<path d="M-38.6093 174.579C-40.0544 174.838 -42.0273 173.527 -42.8242 175.529C-43.7952 177.971 -41.3212 177.964 -40.3464 179.028C-39.2155 180.263 -38.0937 181.51 -36.9679 182.754C-35.5234 184.613 -34.079 186.471 -32.6338 188.329C-31.9837 188.572 -31.3337 188.816 -30.6837 189.059C-28.3753 194.35 -23.7847 197.095 -20.8682 201.707C-21.1436 205.499 -17.043 203.219 -16.6216 206.043C-13.9308 211.072 -11.0099 215.785 -5.75401 217.305C-5.75318 217.302 -5.75233 217.298 -5.7515 217.295C-5.74403 217.282 -5.67756 217.206 -5.67756 217.206C-6.13674 222.301 -1.38635 222.989 -0.195455 226.691C2.02086 228.53 1.96277 233.493 5.81482 233.032C5.68852 229.922 2.65513 228.001 3.74936 224.371C3.97598 223.621 3.47073 222.493 2.63645 222.953C2.01594 223.296 1.67348 224.401 1.20706 225.167C-0.777133 223.225 0.436502 218.542 -3.05559 217.893C-2.76881 216.027 -3.9443 215.372 -4.93441 214.562C-7.02424 213.897 -6.12854 208.46 -9.78789 210.304C-9.94699 208.25 -10.1011 206.191 -12.3864 206.021C-12.8764 205.45 -13.3672 204.879 -13.8572 204.307C-14.8455 201.959 -18.0629 201.295 -17.2843 197.61C-17.9163 197.626 -18.5483 197.641 -19.1812 197.658C-19.2944 196.439 -18.863 194.827 -20.5918 194.781C-23.0773 192.472 -24.5533 188.593 -28.127 187.978C-28.3707 187.666 -28.6145 187.354 -28.8592 187.042C-30.1187 185.619 -31.3774 184.195 -32.6369 182.771C-33.2567 180.603 -35.0047 179.751 -36.2609 178.326C-36.0878 176.217 -35.6717 174.051 -38.6093 174.579Z" fill="#82C6DD"/>
<path d="M-22.4766 80.2164C-22.8832 79.0616 -23.4985 77.8098 -24.6411 78.4236C-26.024 79.1682 -25.0139 80.6681 -24.7633 81.5744C-24.2573 83.4108 -23.629 81.5697 -23.044 81.3248C-22.5239 81.8418 -22.0055 82.3588 -21.4855 82.8758C-22.1673 83.6316 -23.42 84.2343 -22.9466 85.5164C-22.5249 86.6585 -21.5327 85.3263 -20.7932 85.4621C-18.3267 86.3905 -19.7425 91.034 -16.8294 91.5352C-14.1308 92.7218 -13.0661 96.6196 -10.0504 97.2816C-8.83894 99.9954 -7.62585 102.709 -6.41441 105.423C-4.8785 106.437 -3.3426 107.451 -1.06545 108.956C-1.93552 106.3 -2.76278 105.064 -4.11001 104.336C-5.36826 101.173 -6.76257 98.162 -9.75832 96.9183C-10.9204 94.9464 -11.6744 92.549 -13.6794 91.4592C-15.4871 86.4403 -18.999 83.3486 -22.4766 80.2164Z" fill="#82C6DD"/>
<path d="M4.64373 -16.7211C3.15238 -18.2258 0.453263 -17.9327 -0.0895415 -21.0708C-0.667198 -21.8408 -1.36509 -22.7742 -2.05014 -21.3646C-2.36754 -20.7121 -3.77241 -19.1164 -1.65215 -18.8711C1.18929 -15.8603 4.03158 -12.8486 6.87386 -9.83895C8.30369 -6.05727 11.2391 -4.34213 14.9194 -0.983202C12.809 -6.2578 11.5379 -10.0386 7.47635 -10.5936C7.50568 -13.3063 6.04406 -15.3078 4.64373 -16.7211Z" fill="#82C6DD"/>
<path d="M48.7048 170.008C48.2329 168.625 47.3475 167.885 46.1425 167.638C45.1356 166.433 44.8181 163.937 42.7197 164.766C41.9128 165.085 42.139 166.183 42.2437 167.021C42.5789 169.713 44.2526 168.612 45.5453 168.592C46.0873 170.272 42.5157 174.952 47.7324 173.224C48.3166 177.361 52.9815 176.216 53.7954 180.057C55.0241 182.196 56.2401 184.362 59.2888 183.248C56.9699 182.065 56.265 179.242 54.5456 177.507C52.2771 175.375 51.6799 171.326 48.7048 170.008Z" fill="#82C6DD"/>
<path d="M194.143 98.0488C193.361 98.0055 193.181 99.042 193.198 100.001C193.275 104.667 197.019 102.599 198.704 104.296C198.838 104.431 198.983 104.55 199.122 104.676C198.4 107.222 201.426 110.194 204.882 110.26C203.559 107.609 202.505 104.727 199.698 103.95C198.488 101.092 197.233 98.2209 194.143 98.0488Z" fill="#82C6DD"/>
<path d="M186.305 90.4561C185.992 92.6545 186.716 94.2944 187.963 95.6538C188.067 94.7022 188.171 93.7525 188.275 92.803C189.796 94.061 191.318 95.3179 192.839 96.5759C191.599 93.3096 189.817 90.8296 187.724 88.8257C185.809 86.994 185.902 88.7331 186.305 90.4561Z" fill="#82C6DD"/>
<path d="M152.621 50.6722C155.353 53.6794 157.948 56.8194 160.585 60.1904C159.238 55.6804 156.481 52.5254 152.621 50.6722Z" fill="#82C6DD"/>
<path d="M60.8032 187.196C58.8867 190.636 63.5104 191.917 64.9932 194.492C65.9163 196.181 67.0431 197.387 69.1767 197.071C69.0749 194.569 67.7711 193.59 66.5619 192.532C64.4557 190.739 61.7539 185.488 60.8032 187.196Z" fill="#82C6DD"/>
<path d="M212.287 119.077C211.452 114.224 208.002 113.3 205.479 111.299C207.115 114.448 208.68 117.702 212.287 119.077Z" fill="#82C6DD"/>
<path d="M57.1348 262.59C57.9733 267.421 61.5026 268.374 62.7053 271.506C63.9838 273.005 64.9818 275.215 67.6263 273.864C66.6558 272.087 65.8047 270.415 63.811 270.317C62.4477 267.136 60.7584 264.38 57.1348 262.59Z" fill="#82C6DD"/>
<path d="M100.285 36.5834L100.285 36.5782L100.28 36.5736L100.28 36.5796L100.285 36.5834Z" fill="#82C6DD"/>
<path d="M106.287 43.5356C106.114 38.8566 102.421 38.6144 100.266 36.4331C99.9721 41.701 103.772 41.8084 106.287 43.5356Z" fill="#82C6DD"/>
<path d="M90.4869 91.7847C89.5967 88.5041 88.383 86.0196 86.3064 84.2939C85.4425 83.5751 84.602 83.7799 84.0343 84.8452C83.8304 85.229 84.0891 85.9623 84.1366 86.5363C87.5698 85.8055 87.3067 91.1435 90.4869 91.7847Z" fill="#82C6DD"/>
<path d="M65.7736 303.983C63.5249 300.843 62.7187 300.248 60.7578 299.811C62.4526 301.512 63.5525 303.656 65.7736 303.983Z" fill="#82C6DD"/>
<path d="M11.3596 239.108C11.0697 239.188 10.7267 241.274 11.5786 241.971C12.4895 242.716 13.6537 243.523 14.7273 242.635C15.0624 242.358 14.6634 240.641 14.5882 239.379C13.3853 239.222 12.3317 238.841 11.3596 239.108Z" fill="#82C6DD"/>
<path d="M95.1021 28.7976C95.9348 33.5539 98.2119 35.0095 100.315 36.6592C100.012 32.9736 97.4402 31.8497 95.1021 28.7976Z" fill="#82C6DD"/>
<path d="M71.5784 204.854C73.3896 205.406 74.5341 204.721 75.3657 203.443C75.4692 203.283 74.4057 201.306 73.8253 201.311C72.2801 201.32 72.2916 203.378 71.5784 204.854Z" fill="#82C6DD"/>
<path d="M26.4258 262.142C29.7778 262.267 29.7338 265.911 32.6734 265.204C31.2546 263.148 30.622 260.736 26.4258 262.142Z" fill="#82C6DD"/>
<path d="M38.9233 160.857C39.9274 157.095 38.0879 156.105 36.9727 154.632C36.3882 155.243 35.8054 155.855 35.2227 156.467C36.3663 157.823 37.5099 159.18 38.9233 160.857Z" fill="#82C6DD"/>
<path d="M25.5425 143.944C25.5289 143.936 25.5153 143.929 25.5026 143.92C25.4992 143.92 25.4975 143.92 25.4941 143.918C25.5027 143.978 25.5156 144.032 25.5234 144.093C25.5283 144.043 25.5358 143.994 25.5425 143.944Z" fill="#82C6DD"/>
<path d="M29.4039 147.93C28.1766 151.846 31.8823 149.566 32.3485 151.355C33.3285 153.151 34.3085 154.946 35.2877 156.74C35.8585 156.149 36.4301 155.558 37.0017 154.966C35.062 152.381 33.9691 148.827 31.0847 147.32C29.8513 145.694 28.715 143.937 27.3558 142.481C26.0735 141.109 25.7486 142.363 25.5929 143.684C27.2085 144.647 28.9034 145.505 29.4039 147.93Z" fill="#82C6DD"/>
<path d="M19.5904 250.094C18.7169 250.92 18.6333 251.95 19.3417 252.942C19.9559 253.582 20.7326 253.684 21.1753 252.79C21.6602 251.81 21.7533 250.545 20.9375 249.794C20.6837 249.56 19.9293 249.772 19.5904 250.094Z" fill="#82C6DD"/>
<path d="M73.3104 0.168083C71.6013 -1.54895 70.5435 -2.61177 69.1845 -3.97611C69.1581 -0.616775 70.1458 0.616341 73.3104 0.168083Z" fill="#82C6DD"/>
<path d="M1.83758 83.5862C1.47741 83.5342 0.636451 84.2773 0.663246 84.4594C0.961614 86.4477 2.0854 87.3717 3.90646 87.7931C4.22397 85.3682 3.75822 83.8626 1.83758 83.5862Z" fill="#82C6DD"/>
<path d="M7.46008 119.739C6.35206 123.844 9.90019 122.916 11.0497 124.581C10.5777 129.901 15.9644 129.034 16.9882 132.773C17.0529 135.369 19.1688 135.304 20.3342 136.473C21.0809 140.046 21.906 143.541 25.6042 144.143C24.9436 140.03 23.3127 136.659 20.4691 134.217C18.6939 129.833 15.3285 127.266 12.4893 124.098C11.1144 122.285 9.7395 120.472 8.3646 118.66C7.03975 117.127 5.71405 115.594 4.3892 114.061C4.66257 116.7 5.38026 118.841 7.46008 119.739Z" fill="#82C6DD"/>
<path d="M48.4377 41.3242C48.1365 42.4727 48.4371 43.4575 49.2907 43.9336C49.6406 44.1295 50.1659 43.8961 50.6292 43.8562C50.8824 42.3765 50.3829 41.6027 49.6613 41.034C49.2588 40.7192 48.6854 40.3773 48.4377 41.3242Z" fill="#82C6DD"/>
<path d="M106.301 43.3587L106.302 43.3527L106.293 43.3483L106.293 43.3571L106.301 43.3587Z" fill="#82C6DD"/>
<path d="M109.082 47.4051C109.255 44.603 107.96 43.717 106.277 43.2667C106.149 45.7563 107.247 46.8683 109.082 47.4051Z" fill="#82C6DD"/>
<path d="M76.923 206.619C76.4742 208.39 76.5093 209.733 77.9108 210.39C78.6458 212.398 79.1334 215.851 81.4388 214.295C83.033 213.218 80.8808 211.108 80.1746 209.569C80.0342 206.991 77.6557 208.3 76.923 206.619Z" fill="#82C6DD"/>
<path d="M85.8131 220.021C85.4437 224.162 88.8056 224.747 90.3658 227.05C92.2074 229.291 93.4574 232.669 97.8051 232.087C95.6896 229.64 94.146 227.854 92.6024 226.068C90.8518 224.037 89.102 222.007 87.3523 219.974C85.933 218.431 85.0677 216.049 82.8232 215.427C82.6177 218.399 84.8616 218.551 85.8131 220.021Z" fill="#82C6DD"/>
<path d="M30.3129 16.902C29.6436 17.7326 29.8797 18.5765 30.4764 19.1778C30.9794 19.6842 31.5336 20.3607 32.2982 19.5181C32.7844 18.6119 32.6718 17.7852 32.1578 17.0829C31.6404 16.3764 30.9779 16.0771 30.3129 16.902Z" fill="#82C6DD"/>
<path d="M145.262 89.3069C145.272 89.3195 145.286 89.3298 145.298 89.3422C145.3 89.3237 145.299 89.3115 145.301 89.2929L145.262 89.3069Z" fill="#82C6DD"/>
<path d="M148.467 93.5354C148.84 90.2239 146.429 90.4762 145.266 89.2496C144.949 92.2097 146.495 92.9906 148.467 93.5354Z" fill="#82C6DD"/>
<path d="M136.063 31.9515C135.675 36.5386 139.078 34.5336 140.785 35.5564C139.937 34.5467 139.088 33.537 138.24 32.5273C138.564 31.0768 138.174 29.9958 136.99 29.8941C135.753 29.7869 135.75 30.864 136.063 31.9515Z" fill="#82C6DD"/>
<path d="M102.106 105.393C102.511 105.976 103.146 106.7 103.801 105.717C104.046 105.349 103.896 104.594 103.919 104.173C103.223 103.446 102.587 102.996 101.983 103.836C101.781 104.116 101.871 105.056 102.106 105.393Z" fill="#82C6DD"/>
<path d="M46.187 281.938C45.4153 282.444 45.3557 283.65 45.8254 284.191C46.2643 284.695 47.1506 284.607 47.8401 284.779C47.836 284 47.832 283.218 47.8272 282.307C47.6151 280.97 46.722 281.586 46.187 281.938Z" fill="#82C6DD"/>
<path d="M145.264 89.3089L145.303 89.2961C145.291 89.2673 145.276 89.2449 145.263 89.2183C145.262 89.2511 145.265 89.2762 145.264 89.3089Z" fill="#82C6DD"/>
<path d="M142.216 85.9942C142.593 88.4537 144.616 87.8824 145.289 89.2942C145.397 86.7521 144.297 85.9595 142.216 85.9942Z" fill="#82C6DD"/>
<path d="M139.92 147.221C139.33 147.802 138.986 148.756 139.824 149.295C140.138 149.497 140.758 149.031 141.409 148.815C141.366 148.11 141.499 147.273 141.253 147.053C140.976 146.805 140.236 146.91 139.92 147.221Z" fill="#82C6DD"/>
<path d="M38.3704 28.1085C37.7416 28.9528 38.1595 29.7432 38.7759 30.1697C39.1222 30.4102 39.6488 30.2782 39.9905 30.306C40.6149 29.1099 40.3334 28.3435 39.6915 27.9452C39.3499 27.7345 38.6035 27.7972 38.3704 28.1085Z" fill="#82C6DD"/>
<path d="M43.2885 279.616C43.9048 278.69 43.1197 278.23 42.6351 277.491C42.3414 277.443 41.9261 277.375 41.5099 277.309C41.6639 278.064 41.7015 278.92 42.0229 279.535C42.172 279.818 43.1196 279.87 43.2885 279.616Z" fill="#82C6DD"/>
<path d="M82.598 80.3197C82.1158 80.1409 81.6875 79.9813 81.2592 79.8217C81.2347 80.6006 80.998 81.5322 81.251 82.109C81.4613 82.5894 82.2473 82.6537 82.7794 82.9007C82.7225 82.0893 82.6648 81.2791 82.598 80.3197Z" fill="#82C6DD"/>
<path d="M22.5277 6.70001C21.8674 4.96398 20.9726 3.98123 19.0487 3.02616C19.6892 5.78606 20.0807 7.42256 22.5277 6.70001Z" fill="#82C6DD"/>
<path d="M144.837 42.1179C144.222 43.1999 144.392 44.2631 145.228 44.877C145.598 45.1485 146.222 44.9301 146.729 44.9341C146.564 43.9326 146.4 42.9299 146.28 42.2019C145.678 41.2882 145.161 41.5493 144.837 42.1179Z" fill="#82C6DD"/>
<path d="M32.8202 267.334C33.2536 268.248 33.392 268.954 33.748 269.181C34.122 269.418 34.7999 269.407 35.1725 269.126C35.6912 268.734 35.6757 267.87 35.1332 267.613C34.5488 267.334 33.8308 267.433 32.8202 267.334Z" fill="#82C6DD"/>
<path d="M13.8197 97.9543C13.7365 94.9099 11.8789 94.1193 9.87251 93.5174C9.59314 93.3528 9.29969 93.2297 8.99295 93.1489C7.71893 90.9951 6.59192 88.5389 3.85238 89.0126C3.51504 89.0717 2.91335 90.0521 3.00128 90.3284C3.90314 93.1719 5.76213 94.3202 8.27968 94.136C8.75242 95.3908 8.66729 97.3878 10.6341 96.6568C10.9411 97.9495 10.0423 100.165 12.3331 99.939C12.6201 100.15 12.907 100.361 13.194 100.572C16.1732 103.047 16.6526 107.974 19.7741 110.308C20.5627 111.125 21.3513 111.94 22.14 112.757C22.5751 113.429 23.0095 114.102 23.4446 114.775C25.0475 117.809 27.2446 119.918 30.1888 120.862C31.8892 122.878 32.3472 126.384 35.7007 127.391C35.2752 122.906 31.4085 121.825 30.8154 118.253C28.326 118.32 29.1729 114.385 27.1566 113.883C26.5015 111.105 25.5603 108.656 22.7429 108.362C22.1955 107.87 21.6474 107.378 21.0992 106.888C19.4204 104.809 17.7407 102.731 16.0619 100.654C15.3156 99.753 14.5676 98.8537 13.8197 97.9543Z" fill="#82C6DD"/>
<path d="M79.3253 8.83263C79.1479 9.34793 79.3054 10.164 79.5394 10.6758C79.7426 11.1209 80.2662 11.3276 81.0868 11.9973C80.7796 10.5521 80.6783 9.68757 80.4063 8.92334C80.1914 8.31895 79.6359 7.93296 79.3253 8.83263Z" fill="#82C6DD"/>
</svg>

<svg xmlns="http://www.w3.org/2000/svg" width="272" height="306" fill="none" viewBox="0 0 272 306"><path fill="#82c6dd" d="M122.591 128.551c-1.204-5.827-1.204-5.827-11.433-15.398 2.657 6.295 4.579 13.395 11.433 15.398M-21.69 164.167c-.912.99-.956 3.883.876 5.453 1.447 1.24 1.532 4.051 3.561 4.752 2.134 2.825 3.922 6.054 6.689 8.138q.092.585.59.659c4.61 6.788 8.917 13.897 14.522 19.634 1.302.808 1.588 3.398 3.645 2.879.655.41-.402 2.674 1.399 1.84 4.5 8.542 11.279 14.48 17.197 21.4 1.784 3.853 4.027 7.123 7.695 8.591 1.318 3.66 3.4 6.342 6.734 7.417.16.977-.352 2.163.57 2.903 2.629 2.166 3.734 6.291 6.973 7.675 1.563 1.736 1.824 5.539 5.13 4.507.89.949 1.326 3.988 2.635 2.532 1.603-1.786-.993-2.527-1.79-3.707-.786-3.043-3.283-3.21-5.222-4.318-1.32-1.377.512-5.279-2.794-5.065-1.645-5.119-5.243-8.101-8.655-11.287l-2.23-2.471c-1.401-2.991-3.687-4.928-5.867-6.993.59-4.919-3.518-5.308-5.403-7.754-4.91-6.369-8.793-13.896-14.824-19.012.12-3.827-2.508-1.856-3.885-2.524.204-1.615-.157-2.867-1.512-3.484-.665-2.715-1.762-4.914-4.424-5.238-1.92-1.234-1.536-5.317-4.53-5.225-.185-2.257-1.247-3.319-3.141-3.252l-1.864-2.868c.448-3.212-2.282-3.239-3.408-4.873l-1.303-1.914c-.429-2.958-2.637-4.216-4.164-6.085-.893-1.095-1.376-4.291-3.2-2.31M174.693 75.913c2.246 4.75 4.206 9.866 9.175 11.091-2.332-4.637-4.845-9.04-9.175-11.091M164.057 61.764c-.505-.675-1.478-2.034-2.537-.28-.849 1.408-.347 2.426.536 3.24 2.579 2.372 5.195 4.685 7.797 7.02.985 1.541 1.911 3.175 3.695 3.885.725-3.639-2.038-3.256-2.849-4.845-1.168-4.131-4.409-6.038-6.642-9.02M-38.61 174.579c-1.444.259-3.417-1.052-4.214.95-.971 2.442 1.503 2.435 2.478 3.499 1.13 1.235 2.252 2.482 3.378 3.726l4.334 5.575 1.95.73c2.309 5.291 6.9 8.036 9.816 12.648-.276 3.792 3.825 1.512 4.246 4.336 2.691 5.029 5.612 9.742 10.868 11.262l.002-.01c.008-.013.074-.089.074-.089-.459 5.095 4.292 5.783 5.483 9.485 2.216 1.839 2.158 6.802 6.01 6.341-.126-3.11-3.16-5.031-2.066-8.661.227-.75-.278-1.878-1.113-1.418-.62.343-.963 1.448-1.429 2.214-1.984-1.942-.77-6.625-4.263-7.274.287-1.866-.888-2.521-1.878-3.331-2.09-.665-1.195-6.102-4.854-4.258-.159-2.054-.313-4.113-2.598-4.283l-1.471-1.714c-.989-2.348-4.206-3.012-3.427-6.697l-1.897.048c-.113-1.219.318-2.831-1.41-2.877-2.486-2.309-3.962-6.188-7.536-6.803l-.732-.936-3.778-4.271c-.62-2.168-2.368-3.02-3.624-4.445.173-2.109.59-4.275-2.348-3.747M-22.477 80.216c-.406-1.154-1.021-2.406-2.164-1.792-1.383.744-.373 2.244-.122 3.15.506 1.837 1.134-.004 1.719-.25q.779.777 1.559 1.552c-.682.756-1.935 1.358-1.462 2.64.422 1.142 1.414-.19 2.154-.054 2.466.928 1.05 5.572 3.964 6.073 2.698 1.187 3.763 5.085 6.779 5.747l3.636 8.141 5.349 3.533c-.87-2.656-1.698-3.892-3.045-4.62-1.258-3.163-2.653-6.174-5.648-7.418-1.162-1.972-1.916-4.369-3.921-5.459-1.808-5.019-5.32-8.11-8.798-11.243M4.644-16.721c-1.492-1.505-4.19-1.212-4.734-4.35-.577-.77-1.275-1.703-1.96-.294-.318.653-1.722 2.249.398 2.494L6.874-9.84c1.43 3.782 4.365 5.497 8.045 8.856-2.11-5.275-3.381-9.056-7.443-9.61.03-2.713-1.432-4.715-2.832-6.128M48.705 170.008c-.472-1.383-1.358-2.123-2.562-2.37-1.007-1.205-1.325-3.701-3.423-2.872-.807.319-.581 1.417-.476 2.255.335 2.692 2.009 1.591 3.301 1.571.542 1.68-3.03 6.36 2.187 4.632.585 4.137 5.25 2.992 6.063 6.833 1.23 2.139 2.445 4.305 5.494 3.191-2.32-1.183-3.024-4.006-4.743-5.741-2.269-2.132-2.866-6.181-5.841-7.499M194.143 98.049c-.782-.044-.962.993-.945 1.952.077 4.666 3.821 2.598 5.506 4.295.134.135.279.254.418.38-.722 2.546 2.304 5.518 5.76 5.584-1.323-2.651-2.377-5.533-5.184-6.31-1.21-2.858-2.465-5.73-5.555-5.901M186.305 90.456c-.313 2.198.411 3.838 1.658 5.198l.312-2.851 4.564 3.773c-1.24-3.266-3.022-5.746-5.115-7.75-1.915-1.832-1.822-.093-1.419 1.63M152.621 50.672c2.732 3.007 5.327 6.147 7.964 9.518-1.347-4.51-4.104-7.665-7.964-9.518M60.803 187.196c-1.916 3.44 2.707 4.721 4.19 7.296.923 1.689 2.05 2.895 4.184 2.579-.102-2.502-1.406-3.481-2.615-4.539-2.106-1.793-4.808-7.044-5.759-5.336M212.287 119.077c-.835-4.853-4.285-5.777-6.808-7.778 1.636 3.149 3.201 6.403 6.808 7.778M57.135 262.59c.838 4.831 4.368 5.784 5.57 8.916 1.279 1.499 2.277 3.709 4.921 2.358-.97-1.777-1.821-3.449-3.815-3.547-1.363-3.181-3.053-5.937-6.676-7.727M100.285 36.583v-.005l-.005-.004v.006z"/><path fill="#82c6dd" d="M106.287 43.536c-.173-4.68-3.866-4.922-6.021-7.103-.294 5.268 3.506 5.375 6.021 7.103M90.487 91.785c-.89-3.28-2.104-5.765-4.18-7.491-.865-.719-1.705-.514-2.273.551-.204.384.055 1.117.103 1.691 3.433-.73 3.17 4.608 6.35 5.249M65.774 303.983c-2.25-3.14-3.055-3.735-5.016-4.172 1.695 1.701 2.794 3.845 5.016 4.172M11.36 239.108c-.29.08-.633 2.166.219 2.863.91.745 2.075 1.552 3.148.664.335-.277-.064-1.994-.139-3.256-1.203-.157-2.256-.538-3.228-.271"/><path fill="#82c6dd" d="M95.102 28.798c.833 4.756 3.11 6.212 5.213 7.861-.303-3.685-2.875-4.81-5.213-7.861M71.578 204.854c1.812.552 2.956-.133 3.788-1.411.103-.16-.96-2.137-1.54-2.132-1.546.009-1.534 2.067-2.248 3.543M26.426 262.142c3.352.125 3.308 3.769 6.247 3.062-1.418-2.056-2.051-4.468-6.247-3.062M38.923 160.857c1.004-3.762-.835-4.752-1.95-6.225q-.877.917-1.75 1.835zM25.543 143.944q-.021-.011-.04-.024-.005 0-.009-.002c.009.06.022.114.03.175q.008-.075.018-.149"/><path fill="#82c6dd" d="M29.404 147.93c-1.227 3.916 2.478 1.636 2.945 3.425l2.939 5.385 1.714-1.774c-1.94-2.585-3.033-6.139-5.917-7.646-1.234-1.626-2.37-3.383-3.73-4.839-1.282-1.372-1.606-.118-1.762 1.203 1.616.963 3.31 1.821 3.81 4.246M19.59 250.094c-.873.826-.957 1.856-.248 2.848.614.64 1.39.742 1.833-.152.485-.98.578-2.245-.238-2.996-.253-.234-1.008-.022-1.347.3M73.31.168l-4.126-4.144c-.026 3.36.962 4.592 4.126 4.144M1.838 83.586c-.36-.052-1.202.691-1.175.873.299 1.989 1.422 2.913 3.243 3.334.318-2.425-.148-3.93-2.068-4.207M7.46 119.739c-1.108 4.105 2.44 3.177 3.59 4.842-.472 5.32 4.914 4.453 5.938 8.192.065 2.596 2.18 2.531 3.346 3.7.747 3.573 1.572 7.068 5.27 7.67-.66-4.113-2.291-7.484-5.135-9.926-1.775-4.384-5.14-6.951-7.98-10.119l-4.124-5.438-3.976-4.599c.274 2.639.991 4.78 3.071 5.678M48.438 41.324c-.302 1.149 0 2.134.853 2.61.35.196.875-.038 1.338-.078.253-1.48-.246-2.253-.968-2.822-.402-.315-.976-.657-1.223.29M106.301 43.359l.001-.006-.009-.005v.01z"/><path fill="#82c6dd" d="M109.082 47.405c.173-2.802-1.122-3.688-2.805-4.138-.128 2.49.97 3.601 2.805 4.138M76.923 206.619c-.449 1.771-.414 3.114.988 3.771.735 2.008 1.222 5.461 3.528 3.905 1.594-1.077-.558-3.187-1.264-4.726-.14-2.578-2.52-1.269-3.252-2.95M85.813 220.021c-.37 4.141 2.993 4.726 4.553 7.029 1.841 2.241 3.091 5.619 7.44 5.037l-5.204-6.019q-2.625-3.046-5.25-6.094c-1.419-1.543-2.284-3.925-4.529-4.547-.205 2.972 2.039 3.124 2.99 4.594M30.313 16.902c-.67.83-.433 1.674.163 2.276.503.506 1.058 1.183 1.822.34.486-.906.374-1.733-.14-2.435-.518-.707-1.18-1.006-1.845-.181M145.262 89.307q.017.018.036.035l.003-.05z"/><path fill="#82c6dd" d="M148.467 93.535c.373-3.311-2.038-3.059-3.201-4.285-.317 2.96 1.229 3.74 3.201 4.285M136.063 31.952c-.388 4.587 3.015 2.582 4.722 3.604l-2.545-3.029c.324-1.45-.066-2.531-1.25-2.633-1.237-.107-1.24.97-.927 2.058M102.106 105.393c.405.583 1.04 1.307 1.695.324.245-.368.095-1.123.118-1.544-.696-.727-1.332-1.177-1.936-.337-.202.28-.112 1.22.123 1.557M46.187 281.938c-.772.506-.831 1.712-.362 2.253.44.504 1.326.416 2.015.588l-.013-2.472c-.212-1.337-1.105-.721-1.64-.369"/><path fill="#82c6dd" d="m145.264 89.309.039-.013c-.012-.029-.027-.051-.04-.078-.001.033.002.058.001.09"/><path fill="#82c6dd" d="M142.216 85.994c.377 2.46 2.4 1.888 3.073 3.3.108-2.542-.992-3.334-3.073-3.3M139.92 147.221c-.59.581-.934 1.535-.096 2.074.314.202.934-.264 1.585-.48-.043-.705.09-1.542-.156-1.762-.277-.248-1.017-.143-1.333.168M38.37 28.109c-.628.844-.21 1.634.406 2.06.346.241.873.11 1.214.137.625-1.196.343-1.963-.299-2.36-.341-.212-1.088-.149-1.32.162M43.289 279.616c.616-.926-.17-1.386-.654-2.125-.294-.048-.709-.116-1.125-.182.154.755.192 1.611.513 2.226.149.283 1.097.335 1.265.081M82.598 80.32l-1.339-.498c-.024.779-.261 1.71-.008 2.287.21.48.996.545 1.528.792zM22.528 6.7c-.66-1.736-1.555-2.719-3.48-3.674.641 2.76 1.033 4.397 3.48 3.674M144.837 42.118c-.615 1.082-.445 2.145.391 2.759.37.271.994.053 1.501.057l-.449-2.732c-.602-.914-1.119-.653-1.443-.084M32.82 267.334c.434.914.572 1.62.928 1.847.374.237 1.052.226 1.425-.055.518-.392.503-1.256-.04-1.513-.584-.279-1.302-.18-2.313-.279M13.82 97.954c-.084-3.044-1.941-3.835-3.947-4.437a3.5 3.5 0 0 0-.88-.368c-1.274-2.154-2.401-4.61-5.14-4.136-.338.059-.94 1.04-.852 1.315.902 2.844 2.761 3.992 5.279 3.808.472 1.255.387 3.252 2.354 2.52.307 1.293-.592 3.509 1.7 3.283l.86.633c2.98 2.475 3.459 7.402 6.58 9.736l2.366 2.449 1.305 2.018c1.602 3.034 3.8 5.143 6.744 6.087 1.7 2.016 2.158 5.522 5.512 6.529-.426-4.485-4.292-5.566-4.886-9.138-2.489.067-1.642-3.868-3.658-4.37-.655-2.778-1.597-5.227-4.414-5.521q-.821-.738-1.644-1.474l-5.037-6.234q-1.12-1.35-2.242-2.7M79.325 8.833c-.177.515-.02 1.331.214 1.843.204.445.727.652 1.548 1.321-.307-1.445-.409-2.31-.68-3.074-.216-.604-.771-.99-1.082-.09"/></svg>
